X: 2
T: Greensleeves (and Yellow Lace)
O: Trad
Z: John Chambers <jc:trillian.mit.edu>
R: jig
M: 6/8
L: 1/8
K: ADor
  AB \
| "Am"c2c c>de | "G"dBG G>AB | "Am"c2A A>Bc | "E7"B2^G E2B \
| "Am"c2c c>de | "G"dBG G>AB | "F"c>BA "E7"B^G2 | "Am"A3 z :|
|: ef \
| "C"g2g g>fe | "G"d>BG G2g | "Am"a2b c'ba | "Em"g>ee e2f \
| "C"g2g g>fe | "G"d>BG GAB | "F"c>BA "E7"B^G2 | "Am"A3 z :|
%%sep 1 1 500
